actions/22x22-light/dialog-filters.svg

<svg xmlns="http://www.w3.org/2000/svg" viewBox="0 0 22 22">
 <defs id="defs3051">
   <style type="text/css" id="current-color-scheme">
     .ColorScheme-Text {
       color:#4d4d4d;
     }
     </style>
 </defs>
   <path
      style="fill:currentColor;fill-opacity:1;stroke:none"
      d="m3.8144531 3c-.64527 0-.9827919.7664575-.5449219 1.2421875l5.8242188 6.3183595c.1679.18271.2597656.421049.2597656.667969v7.27539c0 .43788.5290369.661356.8417964.353516l2.029297-2.326172c.27161-.32593.421875-.487927.421875-.810547v-4.490234c0-.24692.093496-.485239.259766-.667969l5.824219-6.3203125c.43622-.47408.100368-1.2421875-.544922-1.2421875z"
      class="ColorScheme-Text" />
</svg>

<svg xmlns="http://www.w3.org/2000/svg" viewBox="0 0 22 22">
  <defs id="defs3051">
    <style type="text/css" id="current-color-scheme">
      .ColorScheme-Text {
        color:#4d4d4d
      }
      </style>
  </defs>
    <path
       style="fill:currentColor;fill-opacity:1;stroke:none"
       class="ColorScheme-Text"
       d="M 3.8144531 3 C 3.1691831 3 2.8316612 3.7664575 3.2695312 4.2421875 L 9.09375 10.560547 C 9.26165 10.743257 9.3535156 10.981596 9.3535156 11.228516 L 9.3535156 18.503906 C 9.3535156 18.941786 9.8825525 19.165262 10.195312 18.857422 L 12.224609 16.53125 C 12.496219 16.20532 12.646484 16.043323 12.646484 15.720703 L 12.646484 11.230469 C 12.646484 10.983549 12.73998 10.74523 12.90625 10.5625 L 18.730469 4.2421875 C 19.166689 3.7681075 18.830837 3 18.185547 3 L 3.8144531 3 z "
        />
</svg>
